**kern
*staff1
!!pagebreak:original
*I"P1
=1-
*clefG2
*k[]
*met(c|)
*M2/2
4r
2.c/
=2
8B-/L
8c/J
4.c/
8r
8e-/L
8c/J
=3
1c
=4
8B-/L
8c/J
4.c/
8r
8f/L
8c/J
=5
1c
=6
8B-/L
8c/J
4.c/
8r
8g/L
8c/J
=7
1c
=8
8d/L
8e/
8f/
8g/J
4a/
4r
=9
1cc
*-
